www/assets/icons/copy_all.svg

<svg xmlns="http://www.w3.org/2000/svg" width="24" height="24" viewBox="0 0 24 24" fill='currentColor'><path d="M18.5 2h-9c-1.1 0-2 .9-2 2v12c0 1.1.9 2 2 2h9c1.1 0 2-.9 2-2V4c0-1.1-.9-2-2-2m0 14h-9V4h9zm-15-1v-2h2v2zm0-5.5h2v2h-2zm7 10.5h2v2h-2zm-7-1.5v-2h2v2zm2 3.5c-1.1 0-2-.9-2-2h2zM9 22H7v-2h2zm5 0v-2h2c0 1.1-.9 2-2 2M5.5 6v2h-2c0-1.1.9-2 2-2"/></svg>

<svg width="24" height="24" viewBox="0 0 24 24" xmlns="http://www.w3.org/2000/svg" fill='currentColor'><path d="M18.5 2H9.5C8.4 2 7.5 2.9 7.5 4V16C7.5 17.1 8.4 18 9.5 18H18.5C19.6 18 20.5 17.1 20.5 16V4C20.5 2.9 19.6 2 18.5 2ZM18.5 16H9.5V4H18.5V16ZM3.5 15V13H5.5V15H3.5ZM3.5 9.5H5.5V11.5H3.5V9.5ZM10.5 20H12.5V22H10.5V20ZM3.5 18.5V16.5H5.5V18.5H3.5ZM5.5 22C4.4 22 3.5 21.1 3.5 20H5.5V22ZM9 22H7V20H9V22ZM14 22V20H16C16 21.1 15.1 22 14 22ZM5.5 6V8H3.5C3.5 6.9 4.4 6 5.5 6Z"/></svg>
